X: 1
T:Donegal Highland
M:4/4
L:1/8
Q:80
R:highland
D:Altan, "Island Angel"
K:G
{c}B<EB2 cBc<A|{c}B<EB2 cBc<A|{c}B<EB2 cdc<B|Ad{e}dc B<GG2:|!
g2f<g B3A|Ga{B}ag fdef|g2fg B3A|Gd{e}dc BG{A}G2|!
g2fg B3A|Ga{b}ag fdef|G<BdB cde<f|gb (3agf g4||!
